app/assets/images/Contenido/Odin/Fijar.svg

<svg fill="none" height="24" viewBox="0 0 24 24" width="24" xmlns="http://www.w3.org/2000/svg"><path d="m20.6163 6.97122-3.5583-3.56326c-2.4342-2.437956-3.6507-3.654533-4.9585-3.3663016-1.3066.2882316-1.8987 1.9059316-3.08397 5.1401316l-.80221 2.18935c-.31584.8623-.47436 1.29344-.75897 1.62731-.12754.14983-.2727.2837-.43233.39872-.35547.25581-.7974.3771-1.68127.62093-1.99351.55-2.99147.825-3.36735 1.4772-.1626.2822-.24716.6026-.24499.9283.00481.753.73616 1.4844 2.19767 2.9484l1.69928 1.7005-5.375268 5.3804c-.1637968.1736-.25347395.4042-.2499944.6429.00347954.2387.0998418.4667.2686304.6355.168789.1688.396715.2651.635393.2686.238679.0035.469319-.0862.642949-.25l5.37407-5.3803 1.76054 1.763c1.47232 1.4724 2.20852 2.2098 2.96622 2.2098.3183 0 .6317-.0817.9091-.2402.6581-.3759.9343-1.3799 1.4879-3.3891.2426-.8828.3639-1.3235.6185-1.6802.1117-.1549.2414-.2966.3867-.4227.3303-.2859.759-.4468 1.6152-.7687l2.2145-.8322c3.1992-1.201 4.7988-1.8027 5.0798-3.1057.2823-1.3043-.9259-2.51364-3.3433-4.93238z" fill="#fd4755"/></svg>

<svg width="24" height="24" viewBox="0 0 24 24" fill="none" xmlns="http://www.w3.org/2000/svg">
<path d="M20.6163 6.97122L17.058 3.40796C14.6238 0.970004 13.4073 -0.246573 12.0995 0.0416584C10.7929 0.32989 10.2008 1.94759 9.01553 5.18179L8.21332 7.37114C7.89748 8.23344 7.73896 8.66458 7.45435 8.99845C7.32681 9.14828 7.18165 9.28215 7.02202 9.39717C6.66655 9.65298 6.22462 9.77427 5.34075 10.0181C3.34724 10.5681 2.34928 10.8431 1.9734 11.4953C1.8108 11.7775 1.72624 12.0979 1.72841 12.4236C1.73322 13.1766 2.46457 13.908 3.92608 15.372L5.62536 17.0725L0.250092 22.4529C0.0862952 22.6265 -0.00338195 22.8571 9.75991e-05 23.0958C0.00357714 23.3345 0.0999394 23.5625 0.268728 23.7313C0.437517 23.9001 0.665443 23.9964 0.904121 23.9999C1.1428 24.0034 1.37344 23.9137 1.54707 23.7499L6.92114 18.3696L8.68168 20.1326C10.154 21.605 10.8902 22.3424 11.6479 22.3424C11.9662 22.3424 12.2796 22.2607 12.557 22.1022C13.2151 21.7263 13.4913 20.7223 14.0449 18.7131C14.2875 17.8303 14.4088 17.3896 14.6634 17.0329C14.7751 16.878 14.9048 16.7363 15.0501 16.6102C15.3804 16.3243 15.8091 16.1634 16.6653 15.8415L18.8798 15.0093C22.079 13.8083 23.6786 13.2066 23.9596 11.9036C24.2419 10.5993 23.0337 9.38996 20.6163 6.97122Z" fill="#FD4755"/>
</svg>
